X:1
T:The White Cockade (recruiting)
M:6/8
L:1/4
K:F
 z2 z/2 C/2| F A/2 c c/2| c3/2 A F/2| G A/2 F F/2| F3/2- F C/2| F A/2 c/2c/2d/2|\
 d3/2 c c/4c/4| d c/2 B A/2| c3/2- c C/2| F A/2 c c/2| d3/2 c c/4c/4|\
 d c/2 B A/2| G- A/2B/2-A/2 G/2| c F/2 F F/2| E C/2 B c/2| d G/2 G F/2|\
 E C/2 A B/2| c3/2 c d/2| c3/2 A F/2| G A/2 F E/2| F3/2- F z/2|
